X: 093
T: Mornington House Reel
C: Abraham Mackintosh
R: reel
M: C|
L: 1/8
Z: 2011 John Chambers <jc:trillian.mit.edu>
B: Abraham Mackintosh "A Collection of Strathspeys, Reels, Jigs &c.", Newcastle, after 1797, p.9
F: http://imslp.info/files/imglnks/usimg/a/a8/IMSLP80796-PMLP164326-Abraham_Mackintosh_coll.pdf
K: Am
V: 1
   E | A/A/A AE CA,EA, | B,GDG B,G,DB, | A,A2E CEA,c | B^GEG A/A/A A :|
|: B | (c/d/e/f/) ga gece | dgBg dgBG | c/d/e/f/ ga gece | dBgB A/A/A AB |
       c/d/e/f/ ga gece | dgBg dgBG | AcBd cedf | edcB cAA :|
V: 2 clef=bass middle=d
   z | A2A2 A2A2 | G2G2 G2G2 | A2A2 A2A2 | e2e2 A2A :|
|: z | [c'2c2]c'2 c'2c'2 | b2g2 b2g2 | c'2c2 c2c2 | B3e a2A2 |
       c2c2 c2c2 | B2G2 B2G2 | A2e2 a2d2 | e2e2 a2A :|

%%sep 2 1 500

